svg/Outline/volume-middle.svg

<svg viewBox="0 0 24 24" xmlns="http://www.w3.org/2000/svg" width="24" height="24"><path d="M19.98 5.33a7.5 7.5 0 0 1 1.4 2.82c.34 1.17.52 2.5.52 3.85s-.18 2.68-.52 3.85a7.5 7.5 0 0 1-1.4 2.82.9.9 0 0 1-1.37-1.18c.37-.42.75-1.13 1.05-2.14.28-1 .44-2.15.44-3.35s-.16-2.36-.44-3.35c-.3-1-.68-1.72-1.05-2.14z"/><path fill-rule="evenodd" d="M11.96 5.7c.48.08.91.34 1.2.73.27.34.34.75.37 1.07q.04.5.03 1.22v6.56q0 .72-.03 1.22c-.03.32-.1.73-.36 1.07a2 2 0 0 1-1.42.74 2 2 0 0 1-1.08-.3q-.45-.26-1.03-.67l-1.92-1.32a8 8 0 0 0-.9-.58 3 3 0 0 0-.9-.28 8 8 0 0 0-1.07-.03l-.33-.01q-.19 0-.45-.1a1.4 1.4 0 0 1-.86-1.21l-.01-.33v-3.29q0-.17.1-.44l.06-.13q.24-.45.71-.64l.13-.05q.18-.04.32-.05h.33c.63 0 .86 0 1.07-.04q.46-.07.9-.28c.2-.1.38-.22.9-.58l1.92-1.32q.6-.41 1.03-.67a2 2 0 0 1 1.08-.3zm-.41 1.86q-.28.17-.89.59L8.74 9.47c-.48.32-.8.54-1.13.7a5 5 0 0 1-2.6.5v2.66a5 5 0 0 1 2.6.5c.34.16.65.37 1.13.7l1.92 1.32q.61.43.89.59l.14.07.02-.01.02-.16c.03-.23.03-.55.03-1.06V8.72q0-.73-.03-1.06l-.02-.16h-.02z" clip-rule="evenodd"/><path d="M16.24 8.1a.9.9 0 0 1 1.2.02l.07.06.12.15q.43.58.68 1.47a8 8 0 0 1 0 4.4 4 4 0 0 1-.8 1.62.9.9 0 0 1-1.36-1.18c.11-.13.29-.43.44-.93a6.3 6.3 0 0 0-.35-4.22l-.1-.13-.05-.07a.9.9 0 0 1 .15-1.2m2.46-2.85a.9.9 0 0 1 1.28.1L18.6 6.5a.9.9 0 0 1 .1-1.27"/></svg>

<svg viewBox="0 0 24 24" xmlns="http://www.w3.org/2000/svg" width="24" height="24"><path d="M19.98 5.33a7.5 7.5 0 0 1 1.4 2.82c.34 1.17.52 2.5.52 3.85s-.18 2.68-.52 3.85a7.5 7.5 0 0 1-1.4 2.82.9.9 0 0 1-1.37-1.18c.37-.42.75-1.13 1.05-2.14.28-1 .44-2.15.44-3.35s-.16-2.36-.44-3.35c-.3-1-.68-1.72-1.05-2.14z"/><path fill-rule="evenodd" d="M11.96 5.7C12.44 5.78 12.87 6.04 13.16 6.43C13.43 6.77 13.5 7.18 13.53 7.5Q13.57 8 13.56 8.72L13.56 15.28Q13.56 16 13.53 16.5C13.5 16.82 13.43 17.23 13.17 17.57A2 2 0 0 1 11.75 18.31A2 2 0 0 1 10.67 18.01Q10.22 17.75 9.64 17.34L7.72 16.02A8 8 0 0 0 6.82 15.44A3 3 0 0 0 5.92 15.16A8 8 0 0 0 4.85 15.13L4.52 15.12Q4.33 15.12 4.07 15.02A1.4 1.4 0 0 1 3.21 13.81L3.2 10.19Q3.2 10.02 3.3 9.75L3.36 9.62Q3.6 9.17 4.07 8.98L4.2 8.93Q4.38 8.89 4.52 8.88L4.85 8.88C5.48 8.88 5.71 8.88 5.92 8.84Q6.38 8.77 6.82 8.56C7.02 8.46 7.2 8.34 7.72 7.98L9.64 6.66Q10.24 6.25 10.67 5.99A2 2 0 0 1 11.75 5.69ZM11.55 7.56Q11.27 7.73 10.66 8.15L8.74 9.47C8.26 9.79 7.94 10.01 7.61 10.17A5 5 0 0 1 5.01 10.67L5.01 13.33A5 5 0 0 1 7.61 13.83C7.95 13.99 8.26 14.2 8.74 14.53L10.66 15.85Q11.27 16.28 11.55 16.44L11.71 16.5L11.73 16.34C11.76 16.11 11.76 15.79 11.76 15.28L11.76 8.72Q11.76 7.99 11.73 7.66L11.69 7.5Z" clip-rule="evenodd"/><path d="M16.24 8.1A.9 .9 0 0 1 17.44 8.12L17.63 8.33Q18.06 8.91 18.31 9.8A8 8 0 0 1 18.31 14.2A4 4 0 0 1 17.51 15.82A.9 .9 0 0 1 16.15 14.64C16.26 14.51 16.44 14.21 16.59 13.71A6.3 6.3 0 0 0 16.24 9.49L16.09 9.29A.9 .9 0 0 1 16.24 8.09M18.7 5.24a.9.9 0 0 1 1.28.1L18.6 6.5a.9.9 0 0 1 .1-1.27"/></svg>
